X: 576
T: Sidney's ershte bulgar
C: Sid Beckerman (1989)
M: 4/4
L: 1/8
K: Gm
"D7"D=E^F \
|:"Gm"G2DB- BAG2 | B2Gd- dcB2 \
| "Gm"^cd=ed "(A7)"cBAG | "D7"A4 zD=EF \
|"D7"^F2DA- AGF2 | "Cm"c2Ae- edc2
| "D7"(3ded "Cm"(3cdc "A7/c#"(3BcB "D7"(3ABA \
|1"Gm"(3GAG "F"(3FGF "Eb"(3EFE "D7"D2 :|2 "Gm"G4 z \
|:"F7"FGA \
| "B"BABF- FDB,2 | d^cdB- BFD2
| "B"(3f=ef (3_agf (3agf "F7"_ed | "B"=ef-f2 "F7"zFGA \
|"B"BABF- FDB,2 | "Cm"cGcd edc>B \
| "D7"AB^cd cBAB | "Gm"G4 z :|
